packages/tokens/icons/restApi/size16Px.svg

<svg viewBox="0 0 16 16" fill="none" xmlns="http://www.w3.org/2000/svg" width="1em" height="1em"><path d="M4.88526 2.5L11.1844 2.5C11.3805 2.5 11.5594 2.61162 11.6457 2.78769L14.3131 8.23434C14.3885 8.38811 14.3822 8.5693 14.2964 8.71749L11.6767 13.2437C11.5849 13.4023 11.4155 13.5 11.2322 13.5L4.83717 13.5C4.65578 13.5 4.48785 13.4043 4.39536 13.2483L1.71239 8.72133C1.62326 8.57094 1.61675 8.38553 1.69512 8.22926L4.42618 2.78335C4.51328 2.60966 4.69095 2.5 4.88526 2.5Z" stroke="currentColor"/><path d="M9.5 4.5H9.63403C10.1123 4.5 10.5 4.88771 10.5 5.36597V7.02542C10.5 7.38673 10.7243 7.71006 11.0628 7.83657L11.1359 7.86391C11.2454 7.90484 11.2356 8.06289 11.1219 8.08995V8.08995C10.7573 8.17666 10.5 8.50235 10.5 8.87707V10.634C10.5 11.1123 10.1123 11.5 9.63403 11.5H9.5" stroke="currentColor" stroke-linecap="round" stroke-linejoin="round"/><path d="M6.5 4.5H6.36597C5.88771 4.5 5.5 4.88771 5.5 5.36597V7.02542C5.5 7.38673 5.27567 7.71006 4.93723 7.83657L4.8641 7.86391C4.75457 7.90484 4.7644 8.06289 4.87815 8.08995V8.08995C5.2427 8.17666 5.5 8.50235 5.5 8.87707V10.634C5.5 11.1123 5.88771 11.5 6.36597 11.5H6.5" stroke="currentColor" stroke-linecap="round" stroke-linejoin="round"/></svg>

<svg xmlns="http://www.w3.org/2000/svg" fill="none" viewBox="0 0 16 16" width="1em" height="1em"><path stroke="currentColor" d="M4.885 2.5h6.3c.195 0 .374.112.46.288l2.668 5.446a.513.513 0 0 1-.017.483l-2.62 4.527a.514.514 0 0 1-.444.256H4.837a.514.514 0 0 1-.442-.252L1.712 8.721a.514.514 0 0 1-.017-.492l2.731-5.446a.514.514 0 0 1 .46-.283Z"/><path stroke="currentColor" stroke-linecap="round" stroke-linejoin="round" d="M9.5 4.5h.134c.478 0 .866.388.866.866v1.66c0 .36.224.684.563.81l.073.028c.11.04.1.199-.014.226v0a.81.81 0 0 0-.622.787v1.757a.866.866 0 0 1-.866.866H9.5m-3-7h-.134a.866.866 0 0 0-.866.866v1.66a.866.866 0 0 1-.563.81l-.073.028c-.11.04-.1.199.014.226v0a.81.81 0 0 1 .622.787v1.757c0 .478.388.866.866.866H6.5"/></svg>
